X: 22
T:Midlothian Pipe Band, The
M:6/8
L:1/8
Q:120
R:Jig
K:D
f>e|:"D"d2A d>ef|A2A A2A|f2f f>ed|"A7"e>fe A>Bc|"D"d2A d>ef|"G"B>GB B2g|
"A7"f>ga A>Bc|
1 "D"d3-d>fe:|2 "D"d3-d>ag||
"D"f2f f>ed|"A7"e2e e>fg|"D"a2a "G"f2e|d>BB B>a"A7"g|
"D"f2f f>ed|"Em"e2e e>fg|"A7"f>ga A>Bc|"D"d3-d>"A7"ag|
"D"f2f f>ed|"A7"e2e e>fg|"D"a2a "G"f2e|d>BB B>"A7"ag|
"D"f>ga "A7"e>fg|"Bm"f>ed "G"B2g|"A7"f>ga A>Bc|"D"d3-d2|
